X:42
T:Freddy the Flasher
C:Roy Watrous, 1992
S:The Watrous Book, 1992
M:2/4
L:1/16
Q:1/4=70
K:Bmin
%%MIDI program 72
%%MIDI transpose 8
%%MIDI ratio 3 1
BFBd f2f2|efed cBA2|BFBd fdf2|fa^ge f2fa|b2b2 afa2|
eged cBA2|BFBd f2Tf2|edcA B4::b2b2 a2a2|efed cBA2|BFBf dBdf|
gfeg f4|gfe2 fed2|cedc BAF2|BFBd f2Tf2|edcA B4:|]

